Sources/FrostedUI/Resources/Icons.xcassets/lightbulb16.imageset/lightbulb-16.svg

<svg width="16" height="16" viewBox="0 0 16 16" fill="none" xmlns="http://www.w3.org/2000/svg" data-fui-icon="true">
  <path
    d="M8 0C11.3137 0 14 2.68629 14 6C14 7.90557 13.1107 9.60428 11.7275 10.7021C11.4937 10.8879 11.3787 11.1057 11.3652 11.2949L11.2764 12.5264C11.2238 13.2618 10.8008 13.886 10.1982 14.2256C9.97989 15.2397 9.07937 16 8 16C6.92056 16 6.01906 15.2398 5.80078 14.2256C5.19858 13.8859 4.77614 13.2615 4.72363 12.5264L4.63477 11.2949C4.62125 11.1057 4.50631 10.8879 4.27246 10.7021C2.88933 9.60428 2 7.90557 2 6C2 2.68629 4.68629 0 8 0ZM8 1.5C5.51472 1.5 3.5 3.51472 3.5 6C3.5 7.42855 4.16501 8.70178 5.20508 9.52734C5.67785 9.90273 6.08094 10.4767 6.13184 11.1875L6.21973 12.4199C6.24329 12.7468 6.51502 13 6.84277 13H6.85059L5.6377 6.38477C5.59059 6.12709 5.68119 5.86352 5.87695 5.68945C6.0728 5.51543 6.34529 5.45615 6.5957 5.5332L7.08398 5.68359L7.60742 5.36133C7.84843 5.21318 8.1526 5.21305 8.39355 5.36133L8.91602 5.68359L9.4043 5.5332C9.65471 5.45615 9.9272 5.51545 10.123 5.68945C10.3188 5.86352 10.4094 6.12709 10.3623 6.38477L9.14941 13H9.15723C9.48498 13 9.75671 12.7468 9.78027 12.4199L9.86816 11.1875C9.91906 10.4767 10.3221 9.90273 10.7949 9.52734C11.835 8.70178 12.5 7.42855 12.5 6C12.5 3.51472 10.4853 1.5 8 1.5ZM7.58105 7.13867C7.49989 7.18862 7.41013 7.22198 7.31836 7.23828L8 10.9541L8.68164 7.23828C8.58999 7.222 8.501 7.18851 8.41992 7.13867L8 6.88086L7.58105 7.13867Z"
    fill="currentColor"
  />
</svg>

<svg xmlns="http://www.w3.org/2000/svg" width="16" height="16" fill="none" data-fui-icon="true" viewBox="0 0 16 16"><path fill="currentColor" d="M8 0a6 6 0 0 1 3.727 10.702c-.233.186-.348.404-.362.593l-.089 1.231a2.12 2.12 0 0 1-1.078 1.7 2.25 2.25 0 0 1-4.397 0 2.12 2.12 0 0 1-1.077-1.7l-.09-1.231c-.013-.19-.128-.407-.362-.593A6 6 0 0 1 8 0m0 1.5a4.5 4.5 0 0 0-2.795 8.027c.473.376.876.95.927 1.66l.088 1.233c.023.327.295.58.623.58h.008L5.638 6.385a.75.75 0 0 1 .958-.852l.488.15.523-.322a.75.75 0 0 1 .787 0l.522.323.488-.15a.75.75 0 0 1 .958.85L9.15 13h.008c.328 0 .6-.253.623-.58l.088-1.232c.051-.711.454-1.285.927-1.66A4.5 4.5 0 0 0 8 1.5m-.419 5.639a.8.8 0 0 1-.263.1L8 10.953l.682-3.716a.8.8 0 0 1-.262-.1L8 6.882z"/></svg>
